icons/desktop/20/settings-20.svg

<svg width="20" height="20" viewBox="0 0 20 20" fill="none" xmlns="http://www.w3.org/2000/svg">
<path fill-rule="evenodd" clip-rule="evenodd" d="M10.0004 6.49987C11.9332 6.50004 13.5003 8.06709 13.5004 9.99987C13.5004 11.9328 11.9333 13.4997 10.0004 13.4999C8.06742 13.4999 6.50042 11.9329 6.50042 9.99987C6.50055 8.06699 8.0675 6.49987 10.0004 6.49987ZM10.0004 8.24987C9.0355 8.24987 8.25055 9.03498 8.25042 9.99987C8.25042 10.9649 9.03542 11.7499 10.0004 11.7499C10.9653 11.7497 11.7504 10.9648 11.7504 9.99987C11.7503 9.03509 10.9652 8.25004 10.0004 8.24987Z" fill="black"/>
<path fill-rule="evenodd" clip-rule="evenodd" d="M8.23968 0.415889C9.27886 -0.103504 10.4901 -0.136191 11.5512 0.318233L11.7612 0.414912L11.7631 0.416865C12.3173 0.695648 12.7262 1.20219 12.8774 1.80651L13.2416 3.26647C13.5785 3.43299 13.894 3.62432 14.1908 3.83093L15.6567 3.41198L15.8842 3.36022C16.4162 3.2695 16.9647 3.38398 17.4184 3.68249C18.4536 4.36546 19.1055 5.49606 19.1801 6.73327C19.2172 7.3541 18.9818 7.9613 18.5336 8.3944L17.4457 9.44714C17.4661 9.61965 17.4828 9.80968 17.4828 9.99987C17.4828 10.1904 17.466 10.3794 17.4457 10.5516L18.5336 11.6034C18.926 11.9824 19.1557 12.4949 19.1821 13.0331L19.1801 13.2655C19.1102 14.4244 18.5339 15.4918 17.6088 16.1835L17.4194 16.3163C16.8988 16.6603 16.2547 16.7588 15.6567 16.5878L14.1899 16.1678C13.8934 16.3742 13.5782 16.565 13.2416 16.7313L12.8774 18.1923C12.7267 18.7962 12.3191 19.3042 11.7602 19.5829L11.7612 19.5839C10.7221 20.1033 9.51065 20.1357 8.44964 19.6815L8.2387 19.5839C7.68261 19.3058 7.27451 18.7974 7.12346 18.1932L6.75823 16.7333C6.42157 16.5669 6.10661 16.3753 5.80999 16.1688L4.34417 16.5887C3.74396 16.76 3.10101 16.6593 2.58245 16.3182L2.58147 16.3173C1.54604 15.6342 0.89428 14.5039 0.819754 13.2665C0.78252 12.6453 1.01772 12.0376 1.46624 11.6044L2.55413 10.5516C2.53381 10.3794 2.51702 10.1896 2.51702 9.99987C2.51703 9.8086 2.53279 9.61889 2.55315 9.44616L1.46624 8.39538C1.01786 7.96227 0.782669 7.35521 0.819754 6.73425C0.88968 5.57539 1.46687 4.50794 2.39202 3.81628L2.58147 3.68249C3.10203 3.33871 3.74632 3.24093 4.34417 3.41198L5.80901 3.83093C6.10593 3.62423 6.42119 3.43207 6.75823 3.2655L7.12346 1.80749C7.27411 1.2033 7.68049 0.694636 8.23968 0.415889ZM10.9789 1.98034C10.3622 1.6725 9.63717 1.67292 9.0219 1.98034L9.02093 1.98132C8.92223 2.03052 8.84816 2.12071 8.82073 2.23034L8.35393 4.10046C8.28634 4.37066 8.09416 4.59267 7.83636 4.69812C7.37166 4.88819 6.93649 5.15653 6.51507 5.4823C6.29496 5.6524 6.00714 5.70812 5.73968 5.63171L3.86272 5.0946C3.78192 5.07148 3.69648 5.07578 3.61956 5.10534L3.54534 5.14343C3.00676 5.49869 2.65359 6.07349 2.57757 6.71081L2.56682 6.83874C2.56014 6.95148 2.60268 7.05988 2.68206 7.13659L4.08831 8.49694C4.28821 8.6903 4.38427 8.96742 4.3471 9.24304C4.30249 9.5736 4.26705 9.77694 4.26702 9.99987C4.26702 10.2238 4.30371 10.4223 4.34807 10.7596C4.3842 11.0344 4.28745 11.3102 4.08831 11.5028L2.68206 12.8632C2.60258 12.9399 2.56006 13.0491 2.56682 13.162C2.60844 13.8504 2.97092 14.4774 3.54534 14.8563C3.64055 14.9189 3.75527 14.9367 3.86272 14.9061L5.73968 14.369L5.84026 14.3466C6.07764 14.3081 6.32235 14.3686 6.51507 14.5175C6.88384 14.8025 7.26314 15.0442 7.6635 15.2274L7.83636 15.3026L7.93011 15.3475C8.14041 15.4644 8.29487 15.6639 8.35393 15.9003L8.82073 17.7684C8.84768 17.8762 8.92201 17.9685 9.0219 18.0184C9.63891 18.3266 10.3634 18.3262 10.9789 18.0184C11.0777 17.9692 11.1518 17.8782 11.1791 17.7684L11.6459 15.8993L11.6772 15.7997C11.7627 15.5749 11.9382 15.3939 12.1635 15.3016C12.6282 15.1116 13.0634 14.8423 13.4848 14.5165C13.705 14.3463 13.9936 14.2915 14.2612 14.368L16.1381 14.9051C16.2458 14.9358 16.3614 14.9179 16.4545 14.8563L16.4555 14.8553C17.0297 14.4764 17.3925 13.8477 17.434 13.16C17.4405 13.0474 17.3971 12.9388 17.3178 12.8622L15.9116 11.5028C15.7118 11.3094 15.6156 11.0323 15.6528 10.7567C15.6974 10.4262 15.7328 10.2228 15.7328 9.99987C15.7328 9.77599 15.6971 9.57752 15.6528 9.24011C15.6167 8.96539 15.7124 8.68958 15.9116 8.49694L17.3178 7.13757C17.3972 7.06086 17.4407 6.9515 17.434 6.83874C17.3926 6.15063 17.0303 5.52348 16.4565 5.1444L16.3813 5.10534C16.3035 5.07541 16.2178 5.07065 16.1371 5.09362L16.1381 5.0946L14.2612 5.63171C13.9936 5.70826 13.705 5.65251 13.4848 5.4823C13.0634 5.15657 12.6282 4.88816 12.1635 4.69812C11.9058 4.59261 11.7135 4.37061 11.6459 4.10046L11.1791 2.23132C11.1524 2.12443 11.0797 2.0317 10.9789 1.98034Z" fill="black"/>
</svg>

<!-- This Source Code Form is subject to the terms of the Mozilla Public
   - License, v. 2.0. If a copy of the MPL was not distributed with this
   - file, You can obtain one at http://mozilla.org/MPL/2.0/. -->
<svg xmlns="http://www.w3.org/2000/svg" width="20" height="20" fill="context-fill" fill-opacity="context-fill-opacity" viewBox="0 0 20 20">
    <path fill-rule="evenodd" d="M10 6.5a3.5 3.5 0 1 1 0 7 3.5 3.5 0 0 1 0-7m0 1.75c-.964 0-1.75.785-1.75 1.75s.785 1.75 1.75 1.75 1.75-.785 1.75-1.75-.785-1.75-1.75-1.75" clip-rule="evenodd" />
    <path fill-rule="evenodd" d="M8.24.416A3.94 3.94 0 0 1 11.55.318l.21.097.002.002c.554.279.963.785 1.114 1.39l.365 1.46c.336.166.652.357.949.564l1.466-.419.227-.052c.532-.09 1.08.024 1.534.322a3.94 3.94 0 0 1 1.762 3.051 2.13 2.13 0 0 1-.646 1.661l-1.088 1.053c.02.173.037.363.037.553s-.017.38-.037.552l1.088 1.051c.392.38.622.892.648 1.43l-.002.232a3.94 3.94 0 0 1-1.571 2.918l-.19.133a2.13 2.13 0 0 1-1.762.272l-1.467-.42a7.4 7.4 0 0 1-.948.563l-.365 1.461a2.13 2.13 0 0 1-1.117 1.39l.001.002a3.94 3.94 0 0 1-3.311.098l-.211-.098a2.13 2.13 0 0 1-1.116-1.39l-.365-1.46a7.4 7.4 0 0 1-.948-.565l-1.466.42c-.6.171-1.243.07-1.762-.27v-.002a3.94 3.94 0 0 1-1.762-3.05 2.13 2.13 0 0 1 .646-1.663l1.088-1.052A5 5 0 0 1 2.517 10c0-.191.016-.381.036-.554l-1.087-1.05A2.13 2.13 0 0 1 .82 6.733a3.94 3.94 0 0 1 1.572-2.918l.19-.134a2.13 2.13 0 0 1 1.762-.27l1.465.419c.297-.207.612-.399.95-.566l.364-1.458A2.13 2.13 0 0 1 8.24.416m2.739 1.564a2.19 2.19 0 0 0-1.957 0l-.001.001a.38.38 0 0 0-.2.25L8.354 4.1a.88.88 0 0 1-.518.597c-.464.19-.9.459-1.32.784a.88.88 0 0 1-.776.15l-1.877-.537a.4.4 0 0 0-.243.01l-.075.038a2.19 2.19 0 0 0-.967 1.568l-.011.128a.38.38 0 0 0 .115.298l1.406 1.36c.2.193.296.47.26.746-.046.33-.08.534-.081.757 0 .224.037.422.081.76a.88.88 0 0 1-.26.743l-1.406 1.36a.38.38 0 0 0-.115.299c.041.688.404 1.315.978 1.694.096.063.21.08.318.05l1.877-.537.1-.022a.88.88 0 0 1 .675.17c.369.286.748.527 1.149.71l.172.076.094.044c.21.117.365.317.424.553l.467 1.868c.027.108.101.2.2.25a2.19 2.19 0 0 0 1.958 0 .38.38 0 0 0 .2-.25l.467-1.869.031-.1a.88.88 0 0 1 .487-.497c.464-.19.9-.46 1.32-.785a.88.88 0 0 1 .777-.149l1.877.537c.108.03.223.013.316-.049h.002a2.19 2.19 0 0 0 .978-1.696.38.38 0 0 0-.116-.298l-1.406-1.36a.88.88 0 0 1-.26-.745c.045-.33.08-.534.08-.757 0-.224-.035-.422-.08-.76a.88.88 0 0 1 .26-.743l1.406-1.36a.39.39 0 0 0 .116-.298 2.19 2.19 0 0 0-.978-1.695l-.075-.039a.4.4 0 0 0-.244-.011h.001l-1.877.538a.88.88 0 0 1-.776-.15 5.7 5.7 0 0 0-1.321-.784.88.88 0 0 1-.518-.598l-.467-1.869a.39.39 0 0 0-.2-.25" clip-rule="evenodd" />
</svg>
